X:24
T:Murphy Delany. MBe.24
S:Matthew Betham MS, Towcett Cumbria, 1815
O:England;Cumbria;Towcett
Z:VMP – Hugh Taylor, 2012
M:6/8
L:1/8
Q:3/8=120
R:.Jig
C:in margin-‘Matthew Betham Towcett’
K:G
“G” GFG GFG| “D” GFG Bcd| “G” GFG GFG| “D” ABG FED|
“G” GFG GFG| “D” GFG Bcd| “C” efg dcB| “D” ABA FED:|
|: “Em” Bcd ded| “Em” ded dcB| “D” cde efe| “Em” efe edc|
“Em” Bcd ded| “D” ded def| “C” gfe dcB| “D” ABG FED:|

